X:5
T:Garibaldi-Marsch DA&G (tinwhistle in D) solo
T:mr08962 (Hanny Christen)
%%MIDI program 72   % 111 /74 / 79=whistle
R:march
M:2/4
L:1/8
K:D transpose=12
((3A/2B/2c/2) |: dF FF | AG {/A}G/2F/2G | c>B c>B | A2 F((3A/2B/2c/2) | dF FF | AG {/A}G/2F/2G | c>B Ac |1 d2z((3A/2B/2c/2) :|2 
d2cd || [K:A] ef/2e/2 cd | e2 AA | "_#"GA/2G/2 FF | E2 cd | ef/2e/2 cd | e2 AA | "_#"GF/2G/2 cB | AA/2A/2 AA || [K:D]
|: A2 d>c | B2A2 | F2 B>A | A2G2 | EE/2E/2 EF | GE zA |1 c>B c>B | A2F2 :|2 cd/2c/2 BA | d2zd |: [K:G] B3d | 
B3d | B"_c"c/2B/2 AB | (d2"_c"c)c | A3"_c"c | A3"_c"c |1 ff ee | d2B2 :|2 fg/2f/2 ef | g2z2 |]
% July 30, 2016
%%MIDI program 21

